X:1
T: The Bell Piano Reel
C:Dan Hughie MacEachern
R:Reel
Q:232
K:A
M:4/4
L:1/16
|:A2B2|A2A,2 A,A,A,2 C2E2 A2F2|E2C2 E2d2 c2A2 A2=g2|f2d2 ddd2 c2e2 A2c2|d2c2 B2c2 A2F2 F2G2|
A2E2 EEE2 F2D2 F2A2|E2A2 c2e2 f2d2 f2a2|e2c2 A2c2 d2f2 c2A2|F2B2 G2E2 AAA2:|
|:e2g2|a2A2 AAA2 c2e2 a2g2|f2d2 f2a2 e2c2 A2c2|f2d2 ddd2 c2e2 A2c2|d2c2 B2c2 A2F2 F2G2|
|1A2E2 EEE2 F2D2 F2A2|E2A2 c2e2 f2d2 f2a2|e2c2 A2c2 d2f2 c2A2|F2B2 G2E2 AAA2:|
|2A2A,2 A,A,A,2 C2E2 A2c2|e2A2 AAA2 c2e2 a2g2|f2d2 f2a2 c2e2 c2A2|F2B2 G2E2 AAA2||
